flaticon/productivity-and-development/badge-1.svg

<svg xmlns="http://www.w3.org/2000/svg" width="32" height="32" viewBox="0 0 24 24">
    <path d="M 12 24 C 10.839844 24 9.75 23.546875 8.929688 22.730469 C 8.304688 22.101562 7.46875 21.757812 6.585938 21.757812 C 4.191406 21.757812 2.242188 19.808594 2.242188 17.417969 C 2.242188 16.53125 1.898438 15.695312 1.269531 15.070312 C 0.453125 14.25 0 13.160156 0 12 C 0 10.839844 0.453125 9.75 1.269531 8.929688 C 1.898438 8.304688 2.242188 7.46875 2.242188 6.582031 C 2.242188 4.191406 4.191406 2.242188 6.582031 2.242188 C 7.46875 2.242188 8.304688 1.898438 8.929688 1.269531 C 9.75 0.453125 10.839844 0 12 0 C 13.160156 0 14.25 0.453125 15.070312 1.269531 C 15.695312 1.898438 16.53125 2.242188 17.417969 2.242188 C 19.808594 2.242188 21.757812 4.191406 21.757812 6.582031 C 21.757812 7.46875 22.101562 8.304688 22.730469 8.929688 C 23.546875 9.75 24 10.839844 24 12 C 24 13.160156 23.546875 14.25 22.730469 15.070312 C 22.101562 15.695312 21.757812 16.53125 21.757812 17.417969 C 21.757812 19.808594 19.808594 21.757812 17.417969 21.757812 C 16.53125 21.757812 15.695312 22.101562 15.070312 22.730469 C 14.25 23.546875 13.160156 24 12 24 Z M 12 1.019531 C 11.113281 1.019531 10.28125 1.367188 9.652344 1.992188 C 8.832031 2.8125 7.742188 3.265625 6.585938 3.265625 C 4.753906 3.265625 3.265625 4.753906 3.265625 6.582031 C 3.265625 7.742188 2.8125 8.832031 1.992188 9.652344 C 1.367188 10.28125 1.019531 11.113281 1.019531 12 C 1.019531 12.886719 1.367188 13.71875 1.992188 14.347656 C 2.8125 15.167969 3.265625 16.257812 3.265625 17.417969 C 3.265625 19.246094 4.753906 20.734375 6.585938 20.734375 C 7.742188 20.734375 8.832031 21.1875 9.652344 22.007812 C 10.28125 22.632812 11.113281 22.980469 12 22.980469 C 12.886719 22.980469 13.71875 22.632812 14.347656 22.007812 C 15.167969 21.1875 16.257812 20.734375 17.417969 20.734375 C 19.246094 20.734375 20.734375 19.246094 20.734375 17.417969 C 20.734375 16.257812 21.1875 15.167969 22.007812 14.347656 C 23.300781 13.054688 23.300781 10.945312 22.007812 9.652344 C 21.1875 8.832031 20.734375 7.742188 20.734375 6.582031 C 20.734375 4.753906 19.246094 3.265625 17.417969 3.265625 C 16.257812 3.265625 15.167969 2.8125 14.347656 1.992188 C 13.71875 1.367188 12.886719 1.019531 12 1.019531 Z M 12 1.019531"/>
    <path d="M 12 21.160156 C 9.554688 21.160156 7.253906 20.207031 5.523438 18.476562 C 1.953125 14.90625 1.953125 9.09375 5.523438 5.523438 C 7.253906 3.792969 9.554688 2.839844 12 2.839844 C 14.445312 2.839844 16.746094 3.792969 18.476562 5.523438 C 22.046875 9.09375 22.046875 14.90625 18.476562 18.476562 C 16.746094 20.207031 14.445312 21.160156 12 21.160156 Z M 12 3.863281 C 9.828125 3.863281 7.78125 4.710938 6.246094 6.246094 C 3.074219 9.417969 3.074219 14.582031 6.246094 17.753906 C 7.78125 19.289062 9.828125 20.136719 12 20.136719 C 14.171875 20.136719 16.21875 19.289062 17.753906 17.753906 C 20.925781 14.582031 20.925781 9.417969 17.753906 6.246094 C 16.21875 4.710938 14.171875 3.863281 12 3.863281 Z M 12 3.863281"/>
    <path d="M6.996094 15C6.984375 15.101562 7.019531 15.195312 7.097656 15.273438 7.171875 15.347656 7.269531 15.375 7.386719 15.351562 7.5 15.328125 7.714844 15.21875 8.03125 15.03125 8.347656 14.839844 8.636719 14.734375 8.898438 14.722656 9.164062 14.707031 9.414062 14.816406 9.652344 15.054688 9.890625 15.296875 9.996094 15.578125 9.964844 15.90625 9.9375 16.234375 9.773438 16.542969 9.480469 16.835938 9.0625 17.257812 8.523438 17.480469 7.875 17.503906L7.792969 16.71875C8.332031 16.683594 8.722656 16.542969 8.96875 16.296875 9.078125 16.1875 9.140625 16.078125 9.15625 15.96875 9.171875 15.863281 9.136719 15.765625 9.058594 15.6875 8.976562 15.605469 8.882812 15.578125 8.769531 15.59375 8.65625 15.613281 8.476562 15.699219 8.234375 15.84375 7.851562 16.082031 7.527344 16.210938 7.265625 16.238281 7.003906 16.261719 6.746094 16.148438 6.492188 15.894531 6.242188 15.644531 6.136719 15.359375 6.179688 15.039062 6.226562 14.71875 6.382812 14.425781 6.65625 14.152344 6.832031 13.976562 7.042969 13.828125 7.28125 13.710938 7.519531 13.59375 7.761719 13.527344 8.003906 13.503906L8.136719 14.242188C7.730469 14.296875 7.40625 14.449219 7.160156 14.695312 7.058594 14.792969 7.003906 14.894531 6.996094 15zM12.800781 13.457031L11.976562 13.128906 10.863281 14.246094 11.1875 15.066406 10.558594 15.699219 9.042969 11.886719 9.621094 11.3125 13.433594 12.824219zM10.125 12.390625L10.5625 13.496094 11.230469 12.832031zM13.742188 12.515625L11.078125 9.851562 11.671875 9.257812 13.808594 11.390625 14.941406 10.257812 15.472656 10.785156zM15.164062 5.769531L15.691406 6.296875 14.367188 7.625 14.914062 8.171875 16.105469 6.980469 16.613281 7.488281 15.421875 8.679688 15.972656 9.230469 17.339844 7.863281 17.867188 8.390625 15.90625 10.351562 13.242188 7.6875zM15.164062 5.769531"/>
</svg>

<svg xmlns="http://www.w3.org/2000/svg" width="32" height="32" viewBox="0 0 24 24">
    <path d="M12 24c-1.16 0-2.25-.453-3.07-1.27a3.285 3.285 0 0 0-2.344-.972 4.349 4.349 0 0 1-4.344-4.34c0-.887-.344-1.723-.972-2.348A4.327 4.327 0 0 1 0 12c0-1.16.453-2.25 1.27-3.07.628-.625.972-1.461.972-2.348 0-2.39 1.95-4.34 4.34-4.34.887 0 1.723-.344 2.348-.972A4.327 4.327 0 0 1 12 0c1.16 0 2.25.453 3.07 1.27.625.628 1.461.972 2.348.972 2.39 0 4.34 1.95 4.34 4.34 0 .887.344 1.723.972 2.348.817.82 1.27 1.91 1.27 3.07s-.453 2.25-1.27 3.07a3.288 3.288 0 0 0-.972 2.348c0 2.39-1.95 4.34-4.34 4.34-.887 0-1.723.344-2.348.972A4.327 4.327 0 0 1 12 24zm0-22.98a3.31 3.31 0 0 0-2.348.972 4.312 4.312 0 0 1-3.066 1.274 3.322 3.322 0 0 0-3.32 3.316c0 1.16-.454 2.25-1.274 3.07A3.31 3.31 0 0 0 1.02 12c0 .887.347 1.719.972 2.348.82.82 1.274 1.91 1.274 3.07a3.322 3.322 0 0 0 3.32 3.316c1.156 0 2.246.453 3.066 1.274A3.31 3.31 0 0 0 12 22.98a3.31 3.31 0 0 0 2.348-.972 4.314 4.314 0 0 1 3.07-1.274 3.32 3.32 0 0 0 3.316-3.316c0-1.16.453-2.25 1.274-3.07a3.327 3.327 0 0 0 0-4.696 4.314 4.314 0 0 1-1.274-3.07 3.32 3.32 0 0 0-3.316-3.316c-1.16 0-2.25-.454-3.07-1.274A3.31 3.31 0 0 0 12 1.02zm0 0"/>
    <path d="M12 21.16a9.101 9.101 0 0 1-6.477-2.683c-3.57-3.57-3.57-9.383 0-12.954A9.101 9.101 0 0 1 12 2.84c2.445 0 4.746.953 6.477 2.683 3.57 3.57 3.57 9.383 0 12.954A9.101 9.101 0 0 1 12 21.16zm0-17.297a8.09 8.09 0 0 0-5.754 2.383c-3.172 3.172-3.172 8.336 0 11.508A8.09 8.09 0 0 0 12 20.137a8.09 8.09 0 0 0 5.754-2.383c3.172-3.172 3.172-8.336 0-11.508A8.09 8.09 0 0 0 12 3.863zm0 0"/>
    <path d="M6.996 15a.324.324 0 0 0 .102.273.303.303 0 0 0 .289.079c.113-.024.328-.133.644-.32.317-.192.606-.298.867-.31.266-.015.516.094.754.333.239.242.344.523.313.851-.027.328-.192.637-.485.93-.418.422-.957.644-1.605.668l-.082-.785c.539-.035.93-.176 1.176-.422a.595.595 0 0 0 .187-.328.321.321 0 0 0-.097-.281.32.32 0 0 0-.29-.094c-.113.02-.292.105-.535.25-.382.238-.707.367-.968.394-.262.024-.52-.09-.774-.343-.25-.25-.355-.536-.312-.856.047-.32.203-.613.476-.887a2.34 2.34 0 0 1 .625-.441c.239-.117.48-.184.723-.207l.133.738c-.407.055-.73.207-.977.453a.476.476 0 0 0-.164.305zm0 0M12.8 13.457l-.823-.328-1.114 1.117.325.82-.63.633-1.515-3.812.578-.575 3.813 1.512zm-2.675-1.066l.438 1.105.667-.664zm0 0M13.742 12.516l-2.664-2.664.594-.594 2.137 2.133 1.132-1.133.532.527zm0 0M15.164 5.77l.527.527-1.324 1.328.547.547 1.191-1.192.508.508-1.191 1.192.55.55 1.368-1.367.527.528-1.96 1.96-2.665-2.664zm0 0"/>
</svg>
